X:7764
T:Unknown Polka 2
O:england
M:2/4
L:1/16
Q:125
S:local ceili
R:Polka
K:G
d2|D3E G2B2|D3E G2BA|G2E2 E2DE|G2E2 E2d2|
D3E G2B2|D3E G2BA|G2E2 F2G2|A2G2 G2:||
|:AB|d2B2 B2AB|d2B2 B2AB|G2E2 E2DE|G2E2 E2AB|
d2B2 B2AB|d2B2 B2AB|G2E2 F2G2|A2G2G2:||
